X:1737
L:1/8
Q:1/4=120
M:2/2
K:Ador
"^Brisk" [EA-]([GA-]) | [AA]2 AB cEGE | cB c2 [ee]4 | [de-] [ce]2 [de-] [ee]2 [ee]2 | 
[M:5/4] dc A2 [GA]4 [EA-]([GA-]) |[M:2/2] [AA]2 AB cEGE | cB c2 [ee]4 | g2 ed cd e2 | 
[M:5/4] e2 dc ABcE GE |[M:2/2] [A,A]6 || eg | a2 ga g e2 d | c3 d e3 d | c3 d (e3) d | c3 d e4 | 
[M:5/4] dc A2 [GA]4 [EA-]([GA-]) |[M:2/2] [AA]2 AB cEGE | cB c2 [ee]4 | g2 ed cd e2 | 
[M:5/4] e2 dc ABcA G2 |[M:2/2] [A,A]6 ||

